X:1
T:O God, who hast prepared
T:Joseph Key
T:p23, Five Anthems ... Book III. Nuneaton: [1785]
T:Edition released into the public domain, March 2010. As such, it may be freely copied and performed.
T:O God, who hast prepared
T:The Collect for the Sixth Sunday after Trinity
C:Joseph Key
Z:p23, Five Anthems ... Book III.
Z:Nuneaton: [1785]
%%score [ ( 1 2 ) 3 4 5 ]
L:1/8
Q:1/4=100
M:3/4
K:A
V:1 treble nm="Soprano" snm="S."
V:2 treble 
V:3 treble nm="Alto" snm="A."
V:4 treble-8 transpose=-12 nm="Tenor" snm="T."
V:5 bass nm="Bass" snm="B."
V:1
 E2 | TA3 c ce | Te2 d2 c2 | d2 c2 B2 | %4
w: ||||
 A/[CE]/[DF]/[EG]/ [FA]/[GB]/[Ac]/[Bd]/ [ce]/[df]/[eg]/[fa]/ | [df][ce]/[Bd]/ [Ac]2 TB2 | A4 || %7
w: |||
"^Treble" E2 | A3 c ce | e2 d2 c2 | (B2 A2) TG2 | (AG AB) A2 | (F>G FG) (A>B) | A2 G2 A2 | %14
w: O|God, who hast pre-|par- ed for|them _ that|love _ _ _ thee|such _ _ _ good _|things as pass|
 (Bc) (dc) (BA) | A2 G2 z2 | c3 c cc | (c2 B2) A2 | B2 A2 TG2 | (G2 A4) | c3 c cc | c4 c2 | %22
w: man’s _ un- * der- *|stand- ing;|Pour in- to our|hearts _ such|love to- wards|thee, _|pour in- to our|hearts such|
 d2 d2 (dc) | (cB) z2 z2 | z6 | z6 | z6 | z6 | z6 | z6 | z6 | z6 |: c3 c cc | (c2 B2) A2 | %34
w: love to- wards _|thee, _|||||||||Pour in- to our|hearts _ such|
 B2 A2 TG2 | (G2 A4) | c3 c cc | c4 c2 | d2 d2 (dc) | (cB) z B c2 | cB B2 (B/c/)d | (dc) c2 z2 | %42
w: love to- wards|thee, _|pour in- to our|hearts such|love to- wards _|thee, _ that we,|lov- ing thee a- * bove|all _ things,|
 z6 | z2 z2 AA | A4 A2 | GG G2 GG | F4 G2 | AA A2 GG | F2 G2 A2 | A2 B2 c2 | B4 c2 | d4 (cd) | %52
w: |may ob-|tain thy|pro- mi- ses, may ob-|tain thy|pro- mi- ses, which ex-|ceed all that|we can de-|sire; through|Je- sus _|
 c4 TB2 | c6 :|[M:4/4] c8 | c8 | B8 | c8 |] %58
w: Christ our|Lord.|A-|men,|A-|men.|
V:2
 x2 | x6 | x6 | x6 | x6 | z4 G2 | x4 || x2 | x6 | x6 | x6 | x6 | x6 | x6 | x6 | x6 | x6 | x6 | x6 | %19
 x6 | x6 | x6 | x6 | x6 | x6 | x6 | x6 | x6 | x6 | x6 | x6 | x6 |: x6 | x6 | x6 | x6 | x6 | x6 | %38
 x6 | x6 | x6 | x6 | x6 | x6 | x6 | x6 | x6 | x6 | x6 | x6 | x6 | x6 | x6 | x6 :|[M:4/4] x8 | x8 | %56
 x8 | x8 |] %58
V:3
 z2 | z6 | z6 | z6 | z6 | z6 | z4 || z2 | z6 | z6 | z6 | z6 | z6 | z6 | z6 | z6 | E3 E EE | %17
w: ||||||||||||||||Pour in- to our|
 (E2 D2) C2 | F2 E2 E2 | E6 | E3 E EE | E4 E2 | F2 F2 F2 | E2 z2 z2 | z6 | z6 | z6 | z6 | z6 | z6 | %30
w: hearts _ such|love to- wards|thee,|pour in- to our|hearts such|love to- wards|thee,|||||||
 z6 | z6 |: E3 E EE | (E2 D2) C2 | F2 E2 E2 | E6 | E3 E EE | E4 E2 | F2 F2 F2 | E2 z2 z2 | z6 | %41
w: ||Pour in- to our|hearts _ such|love to- wards|thee,|pour in- to our|hearts such|love to- wards|thee,||
 z2 z2 E2 | ED D2 (B,/C/)D | (DC) C2 EE | F4 F2 | EE E2 EE | (C3 D) E2 | EE E2 EE | (C>D) E2 F2 | %49
w: we,|lov- ing thee a- * bove|all _ things, may ob-|tain thy|pro- mi- ses, may ob-|tain _ thy|pro- mi- ses, which ex-|ceed _ all that|
 C2 D2 E2 | E4 E2 | (FE FG) (AF) | E4 E2 | E6 :|[M:4/4] E8 | E8 | E8 | E8 |] %58
w: we can de-|sire; through|Je- * * * sus _|Christ our|Lord.|A-|men,|A-|men.|
V:4
 z2 | z6 | z6 | z6 | z6 | z6 | z4 || z2 | z6 | z6 | z6 | z6 | z6 | z6 | z6 | z6 | A3 A AA | %17
w: ||||||||||||||||Pour in- to our|
 (A2 G2) A2 | d2 c2 B2 | (B2 c4) | A3 A AA | A4 A2 | (AG) (FG) A2 | (AG) z2 E2 | A3 c ce | %25
w: hearts _ such|love to- wards|thee, _|pour in- to our|hearts such|love _ to- * wards|thee, _ O|God, who hast pre-|
 e2 d2 c2 | (B2 A2) TG2 | (AG AB) A2 | (F>G FG) (A>B) | A2 G2 A2 | (Bc) (dc) (BA) | A2 G2 z2 |: %32
w: par- ed for|them _ that|love _ _ _ thee|such _ _ _ good _|things as pass|man’s _ un- * der- *|stand- ing;|
 A3 A AA | (A2 G2) A2 | d2 c2 B2 | (B2 c4) | A3 A AA | A4 A2 | (AG) (FG) A2 | (AG) z G A2 | %40
w: Pour in- to our|hearts _ such|love to- wards|thee, _|pour in- to our|hearts such|love _ to- * wards|thee, _ that we,|
 AG G2 (G/A/)B | (BA) A2 z2 | z6 | z2 z2 cc | d4 (d>c) | BB B2 cc | A4 B2 | cc c2 BB | A2 G2 F2 | %49
w: lov- ing thee a- * bove|all _ things,||may ob-|tain thy _|pro- mi- ses, may ob-|tain thy|pro- mi- ses, which ex-|ceed all that|
 E2 (FG) A2 | G4 A2 | A4 A2 | A4 TG2 | A6 :|[M:4/4] A8 | A8 | G8 | A8 |] %58
w: we can _ de-|sire; through|Je- sus|Christ our|Lord.|A-|men,|A-|men.|
V:5
 A,,2 | A,,3 A,, A,,C, | C,2 B,,2 A,,2 | D,2 E,2 E,,2 | A,,2 C,2 A,,2 | D,2 E,2 E,,2 | A,,4 || %7
w: |||||||
 A,,2 | A,,3 A,, A,,C, | C,2 B,,2 A,,2 | (D,2 E,2) [E,,E,]2 | A,,4 A,,2 | D,4 C,2 | %13
w: O|God, who hast pre-|par- ed for|them _ that|love thee|such good|
 (D,C,) B,,2 A,,2 | D,2 D,2 ^D,2 | E,2 [E,,E,]2 z2 | A,,3 A,, A,,A,, | (A,,2 B,,2) C,2 | %18
w: things _ as pass|man’s un- der-|stand- ing;|Pour in- to our|hearts _ such|
 D,2 E,2 [E,,E,]2 | A,,6 | A,,3 A,, A,,A,, | A,,4 A,,2 | D,2 D,2 D,2 | E,2 z2 A,,2 | %24
w: love to- wards|thee,|pour in- to our|hearts such|love to- wards|thee, O|
 A,,3 A,, A,,C, | C,2 B,,2 A,,2 | (D,2 E,2) [E,,E,]2 | A,,4 A,,2 | %28
w: God, who hast pre-|par- ed for|them _ that|love thee|
"^The order of staves used here is the same as in the original. The following notes have been written out in full here, but aregiven as small grace notes in the original: bar 19, beat 1, soprano G#, tenor B; bar 35, beat 1, soprano G#, tenor B.The alto part is notated in the treble clef at the upper octave in the source." D,4 C,2 | %29
w: such good|
 (D,C,) B,,2 A,,2 | D,2 D,2 ^D,2 | E,2 [E,,E,]2 z2 |: A,,3 A,, A,,A,, | (A,,2 B,,2) C,2 | %34
w: things _ as pass|man’s un- der-|stand- ing;|Pour in- to our|hearts _ such|
 D,2 E,2 [E,,E,]2 | A,,6 | A,,3 A,, A,,A,, | A,,4 A,,2 | D,2 D,2 D,2 | E,2 z2 z2 | z6 | %41
w: love to- wards|thee,|pour in- to our|hearts such|love to- wards|thee,||
 z2 z2 [C,C]2 | [C,C][B,,B,] [B,,B,]2 [B,,B,][B,,B,] | (([B,,B,][A,,A,])) [A,,A,]2 [A,,A,][A,,A,] | %44
w: we,|lov- ing thee a- bove|all _ things, may ob-|
 D,4 D,2 | [E,,E,][E,,E,] [E,,E,]2 C,C, | F,4 E,2 | [A,,A,][A,,A,] [A,,A,]2 E,E, | F,2 E,2 D,2 | %49
w: tain thy|pro- mi- ses, may ob-|tain thy|pro- mi- ses, which ex-|ceed all that|
 C,2 B,,2 A,,2 | [E,,E,]4 A,,2 | (D,C, D,E,) (F,D,) | E,4 [E,,E,]2 | A,,6 :|[M:4/4] A,,8 | A,,8 | %56
w: we can de-|sire; through|Je- * * * sus _|Christ our|Lord.|A-|men,|
 [E,,E,]8 | A,,8 |] %58
w: A-|men.|

